src/assets/images/SectionImages/logos/cognizant.svg

<svg version="1.1" id="Layer_1" xmlns="http://www.w3.org/2000/svg" xmlns:xlink="http://www.w3.org/1999/xlink" x="0" y="0" viewBox="0 0 245.8 44" xml:space="preserve"><style>.st2{fill:#000048}</style><defs><path id="SVGID_1_" d="M59.2 2.7h186.7v40.8H59.2z"/></defs><clipPath id="SVGID_00000127012036145008233160000001695259364950843821_"><use xlink:href="#SVGID_1_" overflow="visible"/></clipPath><g clip-path="url(#SVGID_00000127012036145008233160000001695259364950843821_)"><defs><path id="SVGID_00000170270455349886588150000003192033147480456075_" d="M59.2 2.7h186.7v40.8H59.2z"/></defs><clipPath id="SVGID_00000034067840273054451910000013916040066528049284_"><use xlink:href="#SVGID_00000170270455349886588150000003192033147480456075_" overflow="visible"/></clipPath><g clip-path="url(#SVGID_00000034067840273054451910000013916040066528049284_)"><path class="st2" d="M158.7 10.7h3.7v22.1h-3.7V10.7zm-13.5-.5c-2.4 0-4.6.8-6.4 2.3v-1.8h-3.7v22.1h3.7V20.3c0-3.6 2.9-6.4 6.4-6.4s6.4 2.9 6.4 6.4v12.5h3.7V20.3c0-5.6-4.5-10.1-10.1-10.1m-17.5.4h3.7v21.3c-.1 6.3-5.2 11.4-11.5 11.5-5 .1-9.6-3.2-11-8h4c1.3 2.7 4 4.4 7 4.3 4.3-.1 7.7-3.6 7.9-7.9V30c-4.7 4.3-12 4.1-16.3-.6-4.3-4.7-4.1-12 .6-16.3 4.4-4.1 11.3-4.1 15.7 0l-.1-2.5zm0 11.1c0-4.3-3.5-7.9-7.8-7.9s-7.9 3.5-7.9 7.8 3.5 7.9 7.9 7.9c4.3 0 7.8-3.5 7.8-7.8m-57-7.9c3 0 5.8 1.8 7.1 4.5h3.9c-1.8-6.1-8.3-9.6-14.4-7.7-6.1 1.8-9.6 8.3-7.7 14.4s8.3 9.6 14.4 7.7c3.7-1.1 6.6-4 7.7-7.7h-3.9c-1.8 3.9-6.5 5.6-10.4 3.8-3.9-1.8-5.6-6.5-3.8-10.4 1.3-2.8 4-4.6 7.1-4.6m35.9 7.9c0 6.4-5.2 11.5-11.5 11.5-6.4 0-11.5-5.2-11.5-11.5s5-11.5 11.4-11.5 11.6 5.1 11.6 11.5m-3.7 0c0-4.3-3.5-7.9-7.8-7.9s-7.9 3.5-7.9 7.8 3.5 7.9 7.8 7.9c4.4 0 7.9-3.5 7.9-7.8m120.5-11.5c-2.4 0-4.6.8-6.4 2.3v-1.8h-3.7v22.1h3.7V20.3c0-3.6 2.9-6.5 6.4-6.5 3.6 0 6.5 2.9 6.5 6.4v12.5h3.7V20.3c-.1-5.6-4.6-10.1-10.2-10.1m-17.5.5h3.7v22.1h-3.7v-2.6c-4.7 4.3-12 4.1-16.3-.6-4.3-4.7-4.1-12 .6-16.3 2.1-2 4.9-3.1 7.8-3.1 2.9 0 5.7 1.1 7.9 3.1v-2.6zm0 11c0-4.3-3.5-7.8-7.9-7.8-4.3 0-7.8 3.5-7.8 7.9 0 4.3 3.5 7.8 7.8 7.8 4.4-.1 7.9-3.6 7.9-7.9m39.9-7.4v-3.7h-5.5v-6h-3.7v20.8c0 4.1 3.3 7.4 7.4 7.4h1.8v-3.7H244c-2 0-3.7-1.7-3.7-3.7V14.3h5.5zM160.5 2.7c-1.4 0-2.4 1.1-2.4 2.4 0 1.4 1.1 2.4 2.4 2.4 1.4 0 2.4-1.1 2.4-2.4.1-1.3-1-2.4-2.4-2.4.1 0 .1 0 0 0m24 8h-18.4v3.7h13.6l-13.6 14.7v3.7h18.4v-3.7h-13.7l13.6-14.7.1-3.7z"/></g></g><defs><path id="SVGID_00000085213138245146219190000008599264730915323836_" d="M0 0h52.1v44H0z"/></defs><clipPath id="SVGID_00000023275576737302775000000017739223560985338244_"><use xlink:href="#SVGID_00000085213138245146219190000008599264730915323836_" overflow="visible"/></clipPath><g clip-path="url(#SVGID_00000023275576737302775000000017739223560985338244_)"><defs><path id="SVGID_00000050660665550895142240000014880732468509939883_" d="m0 22 15.3 22 15.8-9.5L22.2 22z"/></defs><clipPath id="SVGID_00000135667248469030152890000000337272502332585655_"><use xlink:href="#SVGID_00000050660665550895142240000014880732468509939883_" overflow="visible"/></clipPath><g clip-path="url(#SVGID_00000135667248469030152890000000337272502332585655_)"><linearGradient id="SVGID_00000182500455220199611780000011285939690309641648_" gradientUnits="userSpaceOnUse" x1="-391.039" y1="277.815" x2="-390.039" y2="277.815" gradientTransform="matrix(31.1065 0 0 -21.9795 12163.862 6139.21)"><stop offset="0" stop-color="#3d54ce"/><stop offset="1" stop-color="#35cacf"/></linearGradient><path fill="url(#SVGID_00000182500455220199611780000011285939690309641648_)" d="M0 22h31.1v22H0z"/></g><defs><path id="SVGID_00000114070949333990582630000017270483092055787688_" d="M15.3 44h21.8l15-22z"/></defs><clipPath id="SVGID_00000092426726985261628360000008018755475207643524_"><use xlink:href="#SVGID_00000114070949333990582630000017270483092055787688_" overflow="visible"/></clipPath><g clip-path="url(#SVGID_00000092426726985261628360000008018755475207643524_)"><linearGradient id="SVGID_00000029744234580894563620000004719264263002787256_" gradientUnits="userSpaceOnUse" x1="-393.062" y1="277.815" x2="-392.062" y2="277.815" gradientTransform="matrix(36.8476 0 0 -21.9795 14498.684 6139.21)"><stop offset="0" stop-color="#13457d"/><stop offset="1" stop-color="#279698"/></linearGradient><path fill="url(#SVGID_00000029744234580894563620000004719264263002787256_)" d="M15.3 22h36.8v22H15.3z"/></g><defs><path id="SVGID_00000124156495544010432790000012960116144518489730_" d="M15.3 0 0 22h22.2l8.9-12.5z"/></defs><clipPath id="SVGID_00000029046943914045948290000010502153975593422010_"><use xlink:href="#SVGID_00000124156495544010432790000012960116144518489730_" overflow="visible"/></clipPath><g clip-path="url(#SVGID_00000029046943914045948290000010502153975593422010_)"><linearGradient id="SVGID_00000031913817338843176650000007177461719868006072_" gradientUnits="userSpaceOnUse" x1="-391.049" y1="277.815" x2="-390.049" y2="277.815" gradientTransform="matrix(31.1316 0 0 -21.9796 12173.976 6117.246)"><stop offset="0" stop-color="#090086"/><stop offset="1" stop-color="#2f96a9"/></linearGradient><path fill="url(#SVGID_00000031913817338843176650000007177461719868006072_)" d="M0 0h31.1v22H0z"/></g><defs><path id="SVGID_00000147909067435365521700000017294411540867699616_" d="m15.3 0 36.8 22-15-22z"/></defs><clipPath id="SVGID_00000078011445600416747300000013195656224370321068_"><use xlink:href="#SVGID_00000147909067435365521700000017294411540867699616_" overflow="visible"/></clipPath><g clip-path="url(#SVGID_00000078011445600416747300000013195656224370321068_)"><linearGradient id="SVGID_00000128475501832932076910000005979470219009375159_" gradientUnits="userSpaceOnUse" x1="-393.062" y1="277.815" x2="-392.062" y2="277.815" gradientTransform="matrix(36.8476 0 0 -21.9796 14498.684 6117.246)"><stop offset="0" stop-color="#3b62ca"/><stop offset="1" stop-color="#93dfe3"/></linearGradient><path fill="url(#SVGID_00000128475501832932076910000005979470219009375159_)" d="M15.3 0h36.8v22H15.3z"/></g></g></svg>

<svg width="246" height="44" viewBox="0 0 246 44" fill="none" xmlns="http://www.w3.org/2000/svg">
<g clip-path="url(#clip0_7_5)">
<path d="M158.7 10.7H162.4V32.8H158.7V10.7ZM145.2 10.2C142.8 10.2 140.6 11 138.8 12.5V10.7H135.1V32.8H138.8V20.3C138.8 16.7 141.7 13.9 145.2 13.9C148.7 13.9 151.6 16.8 151.6 20.3V32.8H155.3V20.3C155.3 14.7 150.8 10.2 145.2 10.2ZM127.7 10.6H131.4V31.9C131.3 38.2 126.2 43.3 119.9 43.4C114.9 43.5 110.3 40.2 108.9 35.4H112.9C114.2 38.1 116.9 39.8 119.9 39.7C124.2 39.6 127.6 36.1 127.8 31.8V30C123.1 34.3 115.8 34.1 111.5 29.4C107.2 24.7 107.4 17.4 112.1 13.1C116.5 9 123.4 9 127.8 13.1L127.7 10.6ZM127.7 21.7C127.7 17.4 124.2 13.8 119.9 13.8C115.6 13.8 112 17.3 112 21.6C112 25.9 115.5 29.5 119.9 29.5C124.2 29.5 127.7 26 127.7 21.7ZM70.7 13.8C73.7 13.8 76.5 15.6 77.8 18.3H81.7C79.9 12.2 73.4 8.7 67.3 10.6C61.2 12.4 57.7 18.9 59.6 25C61.5 31.1 67.9 34.6 74 32.7C77.7 31.6 80.6 28.7 81.7 25H77.8C76 28.9 71.3 30.6 67.4 28.8C63.5 27 61.8 22.3 63.6 18.4C64.9 15.6 67.6 13.8 70.7 13.8ZM106.6 21.7C106.6 28.1 101.4 33.2 95.1 33.2C88.7 33.2 83.6 28 83.6 21.7C83.6 15.4 88.6 10.2 95 10.2C101.4 10.2 106.6 15.3 106.6 21.7ZM102.9 21.7C102.9 17.4 99.4 13.8 95.1 13.8C90.8 13.8 87.2 17.3 87.2 21.6C87.2 25.9 90.7 29.5 95 29.5C99.4 29.5 102.9 26 102.9 21.7ZM223.4 10.2C221 10.2 218.8 11 217 12.5V10.7H213.3V32.8H217V20.3C217 16.7 219.9 13.8 223.4 13.8C227 13.8 229.9 16.7 229.9 20.2V32.7H233.6V20.3C233.5 14.7 229 10.2 223.4 10.2ZM205.9 10.7H209.6V32.8H205.9V30.2C201.2 34.5 193.9 34.3 189.6 29.6C185.3 24.9 185.5 17.6 190.2 13.3C192.3 11.3 195.1 10.2 198 10.2C200.9 10.2 203.7 11.3 205.9 13.3V10.7ZM205.9 21.7C205.9 17.4 202.4 13.9 198 13.9C193.7 13.9 190.2 17.4 190.2 21.8C190.2 26.1 193.7 29.6 198 29.6C202.4 29.5 205.9 26 205.9 21.7ZM245.8 14.3V10.6H240.3V4.6H236.6V25.4C236.6 29.5 239.9 32.8 244 32.8H245.8V29.1H244C242 29.1 240.3 27.4 240.3 25.4V14.3H245.8ZM160.5 2.7C159.1 2.7 158.1 3.8 158.1 5.1C158.1 6.5 159.2 7.5 160.5 7.5C161.9 7.5 162.9 6.4 162.9 5.1C163 3.8 161.9 2.7 160.5 2.7C160.6 2.7 160.6 2.7 160.5 2.7ZM184.5 10.7H166.1V14.4H179.7L166.1 29.1V32.8H184.5V29.1H170.8L184.4 14.4L184.5 10.7Z" fill="white"/>
<mask id="mask0_7_5" style="mask-type:luminance" maskUnits="userSpaceOnUse" x="0" y="22" width="32" height="22">
<path d="M0 22L15.3 44L31.1 34.5L22.2 22H0Z" fill="white"/>
</mask>
<g mask="url(#mask0_7_5)">
<path d="M0 22H31.1V44H0V22Z" fill="url(#paint0_linear_7_5)"/>
</g>
<mask id="mask1_7_5" style="mask-type:luminance" maskUnits="userSpaceOnUse" x="15" y="22" width="38" height="22">
<path d="M15.3 44H37.1L52.1 22L15.3 44Z" fill="white"/>
</mask>
<g mask="url(#mask1_7_5)">
<path d="M15.3 22H52.1V44H15.3V22Z" fill="url(#paint1_linear_7_5)"/>
</g>
<mask id="mask2_7_5" style="mask-type:luminance" maskUnits="userSpaceOnUse" x="0" y="0" width="32" height="22">
<path d="M15.3 0L0 22H22.2L31.1 9.5L15.3 0Z" fill="white"/>
</mask>
<g mask="url(#mask2_7_5)">
<path d="M0 0H31.1V22H0V0Z" fill="url(#paint2_linear_7_5)"/>
</g>
<mask id="mask3_7_5" style="mask-type:luminance" maskUnits="userSpaceOnUse" x="15" y="0" width="38" height="22">
<path d="M15.3 0L52.1 22L37.1 0H15.3Z" fill="white"/>
</mask>
<g mask="url(#mask3_7_5)">
<path d="M15.3 0H52.1V22H15.3V0Z" fill="url(#paint3_linear_7_5)"/>
</g>
</g>
<defs>
<linearGradient id="paint0_linear_7_5" x1="0.0073465" y1="32.9752" x2="31.1138" y2="32.9752" gradientUnits="userSpaceOnUse">
<stop stop-color="#3D54CE"/>
<stop offset="1" stop-color="#35CACF"/>
</linearGradient>
<linearGradient id="paint1_linear_7_5" x1="15.2926" y1="32.9752" x2="52.1402" y2="32.9752" gradientUnits="userSpaceOnUse">
<stop stop-color="#13457D"/>
<stop offset="1" stop-color="#279698"/>
</linearGradient>
<linearGradient id="paint2_linear_7_5" x1="-0.0050484" y1="10.9834" x2="31.1266" y2="10.9834" gradientUnits="userSpaceOnUse">
<stop stop-color="#090086"/>
<stop offset="1" stop-color="#2F96A9"/>
</linearGradient>
<linearGradient id="paint3_linear_7_5" x1="15.2926" y1="10.9834" x2="52.1402" y2="10.9834" gradientUnits="userSpaceOnUse">
<stop stop-color="#3B62CA"/>
<stop offset="1" stop-color="#93DFE3"/>
</linearGradient>
<clipPath id="clip0_7_5">
<rect width="245.8" height="44" fill="white"/>
</clipPath>
</defs>
</svg>
